icon-themes/sifr_svg/cmd/lc_toolsmacroedit.svg

<svg viewBox="0 0 24 24" xmlns="http://www.w3.org/2000/svg"><path d="m5 2v12c-2.2 0-4 1.8-4 4s1.8 4 4 4h3v-2h-3c-1.1 0-2-.9-2-2 0-1.104569.9-2 2-2h2v-12h12c1.1 0 2 .9 2 2 0 .92-.62107 1.68-1.462891 1.92l.462891.08s.3 0 .63.09375l.01.00625h.01c.485525.1.931714.3 1.35.54.61-.7052037 1-1.6228281 1-2.64 0-2.2-1.8-4-4-4zm14.43 5.95c-.13.05-.28.05-.43.05h-2v2.4c.7-.7024507 1.4-1.4 2.1-2.1l.331641-.35zm.37 1.05-1.6 1.62c1.07 1.067436 2.13 2.13293 3.2 3.18l1.6-1.6c0-.2 0-.4-.05-.625781-.05-.174219-.13584-.335189-.2-.5-.388757-.998646-1.23-1.774219-2.3-1.974219-.216222-.1-.45-.1-.65-.1zm-3.2 3.2-7.6 7.6v3.2h3.2l7.6-7.6z" fill="#555753"/></svg>

<svg viewBox="0 0 24 24" xmlns="http://www.w3.org/2000/svg">
  <path
     style="fill:#555753"
     d="M 5 2 L 5 14 C 2.8 14 1 15.8 1 18 C 1 20.2 2.8 22 5 22 L 8 22 L 8 20 L 5 20 C 3.9 20 3 19.1 3 18 C 3 16.895431 3.9 16 5 16 L 7 16 L 7 4 L 19 4 C 20.1 4 21 4.9 21 6 C 21 6.92 20.37893 7.68 19.537109 7.92 L 20 8 C 20 8 20.3 8 20.63 8.09375 L 20.64 8.1 L 20.65 8.1 C 21.135525 8.2 21.581714 8.4 22 8.64 C 22.61 7.9347963 23 7.0171719 23 6 C 23 3.8 21.2 2 19 2 L 5 2 z M 19.43 7.95 C 19.3 8 19.15 8 19 8 L 17 8 L 17 10.4 C 17.7 9.6975493 18.4 9 19.1 8.3 L 19.431641 7.95 z M 19.8 9 L 18.2 10.62 C 19.27 11.687436 20.33 12.75293 21.4 13.8 L 23 12.2 C 23 12 23 11.8 22.95 11.574219 C 22.9 11.4 22.81416 11.23903 22.75 11.074219 C 22.361243 10.075573 21.52 9.3 20.45 9.1 C 20.233778 9 20 9 19.8 9 z M 16.6 12.2 L 9 19.8 L 9 23 L 12.2 23 L 19.8 15.4 L 16.6 12.2 z "
     />
</svg>
